X:2036
T:Braes of Acklebrie,The. BF11.03
M:2/2
L:1/8
Q:200
C:Browne A hand
S:MS11,c1800?.,Browne Coll.,Lakes
R:Reel
O:England
A:Lakes
N:It is obvious that another page has blotted on this one, and there are
N:a lot of extraneous blots   cont/ however I think the notes represented
N:here
N:as chords are alternate note
Z:vmp.Cherri Graebe.
K:C major
C2CD EGGA|cded cAGc|A/2A/2A AG A2a2|ecge d2c2|!
"NB"[C2B2][GC]D EGGA|cded cAGc|AGGc FcEc|d/2c/2B c"NB"[Eg][D2f2]C2:|!
|:efga gece|afdf edcG|A/2A/2A ag a2b2|ecge d2c2|!
efga gece|gfdf edcG|AcGc FcEc|d/2c/2B cED2C2:|]


